assets/svgs/misc-grey/MiscGrey8.svg

<svg width="36" height="35" viewBox="0 0 36 35" fill="none" xmlns="http://www.w3.org/2000/svg">
<path fill-rule="evenodd" clip-rule="evenodd" d="M31.8999 16.005C30.0299 14.084 27.4899 13.11 24.3499 13.11C18.0699 13.11 10.4099 13.166 5.96995 13.203L16.0199 3.162C16.5999 2.576 16.5999 1.626 16.0199 1.041C15.4299 0.455001 14.4799 0.455001 13.8899 1.041L1.25995 13.675C1.25995 13.676 1.25995 13.678 1.25995 13.68C1.19995 13.733 1.15995 13.793 1.10995 13.855C1.09995 13.872 1.07995 13.887 1.06995 13.905C1.01995 13.981 0.979946 14.063 0.939946 14.148C0.939946 14.153 0.939946 14.157 0.929946 14.162C0.909946 14.221 0.889946 14.285 0.879946 14.349C0.869946 14.38 0.859946 14.411 0.849946 14.443C0.839946 14.481 0.839946 14.521 0.839946 14.56C0.829946 14.618 0.819946 14.676 0.819946 14.735C0.819946 14.738 0.819946 14.74 0.819946 14.743C0.819946 14.745 0.819946 14.748 0.819946 14.75C0.819946 14.798 0.829946 14.843 0.839946 14.889C0.839946 14.938 0.839946 14.989 0.849946 15.037C0.869946 15.102 0.889946 15.162 0.909946 15.223C0.919946 15.254 0.929946 15.286 0.939946 15.315C0.969946 15.383 0.999946 15.445 1.03995 15.507C1.04995 15.528 1.05995 15.551 1.07995 15.571C1.12995 15.644 1.17995 15.711 1.23995 15.773C1.24995 15.78 1.24995 15.789 1.25995 15.796V15.798C1.25995 15.8 1.26995 15.802 1.26995 15.804L13.7599 28.296C14.0499 28.589 14.4399 28.735 14.8199 28.735C15.1999 28.735 15.5899 28.589 15.8799 28.296C16.4699 27.71 16.4699 26.76 15.8799 26.175L5.90995 16.203C10.3299 16.166 18.0399 16.11 24.3499 16.11C26.6399 16.11 28.4499 16.775 29.7399 18.087C32.1499 20.541 32.0999 24.537 32.0999 24.61V32.61C32.0999 33.439 32.7699 34.11 33.5999 34.11C34.4299 34.11 35.0999 33.439 35.0999 32.61V24.648C35.0999 24.434 35.1899 19.379 31.8999 16.005Z" fill="#1A1919"/>
</svg>

<svg xmlns="http://www.w3.org/2000/svg" viewBox="0 0 36 35"><path fill-rule="evenodd" d="M31.9 16.005c-1.87-1.921-4.41-2.895-7.55-2.895-6.28 0-13.94.056-18.38.093L16.02 3.162a1.51 1.51 0 000-2.121 1.51 1.51 0 00-2.13 0L1.26 13.675v.005c-.06.053-.1.113-.15.175-.01.017-.03.032-.04.05a1.94 1.94 0 00-.13.243c0 .005 0 .009-.01.014-.02.059-.04.123-.05.187l-.03.094c-.01.038-.01.078-.01.117-.01.058-.02.116-.02.175v.015c0 .048.01.093.02.139 0 .049 0 .1.01.148l.06.186.03.092c.03.068.06.13.1.192.01.021.02.044.04.064.05.073.1.14.16.202.01.007.01.016.02.023v.002c0 .002.01.004.01.006l12.49 12.492c.29.293.68.439 1.06.439s.77-.146 1.06-.439c.59-.586.59-1.536 0-2.121l-9.97-9.972c4.42-.037 12.13-.093 18.44-.093 2.29 0 4.1.665 5.39 1.977 2.41 2.454 2.36 6.45 2.36 6.523v8c0 .829.67 1.5 1.5 1.5s1.5-.671 1.5-1.5v-7.962c0-.214.09-5.269-3.2-8.643z" clip-rule="evenodd"/></svg>
